X: 1
T: Drowsy Maggie
O: O'Neill 1903
B: O'Neill "Music of Ireland" 1903 #1425
R: reel
Z: 1997 by John Chambers <jc:trillian.mit.edu>
M: C|
L: 1/8
K: EDor
|: "Em"E2BE    dEBE |    E2BE  "D"AFDF | "Em"E2BE    dEBE | "G"BABc "D"dAF[AD] :|
[| "D"d2fd "A7"c2ec | "D"defg "A7"afge | "D"d2fd "A7"c2ec | "G"BABc "D"dAFA |]
[| "D"d2fd "A7"c2ec | "D"defg "A7"afge | "D"afge "A7"fdec | "G"BABc "D"dAFD |]
